report_00007_2020-12-11T15:55:29.892Z/mainthread-work-breakdown/comparison/line/7_vs_8.svg

<svg width="640" height="500" xmlns="http://www.w3.org/2000/svg" xmlns:xlink="http://www.w3.org/1999/xlink"><path fill="#fff" d="M0 0h640v500H0z"/><defs><path id="d" stroke-width=".222" stroke="currentColor" d="M-1-1h2v2h-2z"/><path id="b" stroke-width=".222" stroke="currentColor" d="M0-1.33l-1.33 2h2.66z"/><path id="f" stroke-width=".222" stroke="currentColor" d="M0 1.33L1.265.411.782-1.067l-1.564-.009-.483 1.487z"/><use xlink:href="#b" id="c" stroke="currentColor" transform="rotate(180)"/><use xlink:href="#d" id="e" stroke="currentColor" transform="rotate(45)"/><circle id="a" stroke-width=".222" stroke="currentColor" cx="0" cy="0" r="1"/></defs><g fill="none" color="#000" stroke="currentColor"><path stroke="#000" d="M53.9 387.5h9m552.1 0h-9"/><text transform="translate(45.6 391.4)" stroke="none" fill="#000" font-family="Arial" font-size="12" text-anchor="end"><tspan>700</tspan></text></g><g fill="none" color="#000" stroke="currentColor"><path stroke="#000" d="M53.9 342.8h9m552.1 0h-9"/><text transform="translate(45.6 346.7)" stroke="none" fill="#000" font-family="Arial" font-size="12" text-anchor="end"><tspan>720</tspan></text></g><g fill="none" color="#000" stroke="currentColor"><path stroke="#000" d="M53.9 298.2h9m552.1 0h-9"/><text transform="translate(45.6 302.1)" stroke="none" fill="#000" font-family="Arial" font-size="12" text-anchor="end"><tspan>740</tspan></text></g><g fill="none" color="#000" stroke="currentColor"><path stroke="#000" d="M53.9 253.5h9m552.1 0h-9"/><text transform="translate(45.6 257.4)" stroke="none" fill="#000" font-family="Arial" font-size="12" text-anchor="end"><tspan>760</tspan></text></g><g fill="none" color="#000" stroke="currentColor"><path stroke="#000" d="M53.9 208.9h9m552.1 0h-9"/><text transform="translate(45.6 212.8)" stroke="none" fill="#000" font-family="Arial" font-size="12" text-anchor="end"><tspan>780</tspan></text></g><g fill="none" color="#000" stroke="currentColor"><path stroke="#000" d="M53.9 164.2h9m552.1 0h-9"/><text transform="translate(45.6 168.1)" stroke="none" fill="#000" font-family="Arial" font-size="12" text-anchor="end"><tspan>800</tspan></text></g><g fill="none" color="#000" stroke="currentColor"><path stroke="#000" d="M53.9 119.6h9m552.1 0h-9"/><text transform="translate(45.6 123.5)" stroke="none" fill="#000" font-family="Arial" font-size="12" text-anchor="end"><tspan>820</tspan></text></g><g fill="none" color="#000" stroke="currentColor"><path stroke="#000" d="M53.9 74.9h9m552.1 0h-9"/><text transform="translate(45.6 78.8)" stroke="none" fill="#000" font-family="Arial" font-size="12" text-anchor="end"><tspan>840</tspan></text></g><g fill="none" color="#000" stroke="currentColor"><path stroke="#000" d="M53.9 30.3h9m552.1 0h-9"/><text transform="translate(45.6 34.2)" stroke="none" fill="#000" font-family="Arial" font-size="12" text-anchor="end"><tspan>860</tspan></text></g><g fill="none" color="#000" stroke="currentColor"><path stroke="#000" d="M53.9 428v-9m0-400.9v9"/><text transform="translate(53.9 449.9)" stroke="none" fill="#000" font-family="Arial" font-size="12" text-anchor="middle"><tspan>0</tspan></text></g><g fill="none" color="#000" stroke="currentColor"><path stroke="#000" d="M110.6 428v-9m0-400.9v9"/><text transform="translate(110.6 449.9)" stroke="none" fill="#000" font-family="Arial" font-size="12" text-anchor="middle"><tspan>10</tspan></text></g><g fill="none" color="#000" stroke="currentColor"><path stroke="#000" d="M167.3 428v-9m0-400.9v9"/><text transform="translate(167.3 449.9)" stroke="none" fill="#000" font-family="Arial" font-size="12" text-anchor="middle"><tspan>20</tspan></text></g><g fill="none" color="#000" stroke="currentColor"><path stroke="#000" d="M223.9 428v-9m0-400.9v9"/><text transform="translate(223.9 449.9)" stroke="none" fill="#000" font-family="Arial" font-size="12" text-anchor="middle"><tspan>30</tspan></text></g><g fill="none" color="#000" stroke="currentColor"><path stroke="#000" d="M280.6 428v-9m0-400.9v9"/><text transform="translate(280.6 449.9)" stroke="none" fill="#000" font-family="Arial" font-size="12" text-anchor="middle"><tspan>40</tspan></text></g><g fill="none" color="#000" stroke="currentColor"><path stroke="#000" d="M337.3 428v-9m0-400.9v9"/><text transform="translate(337.3 449.9)" stroke="none" fill="#000" font-family="Arial" font-size="12" text-anchor="middle"><tspan>50</tspan></text></g><g fill="none" color="#000" stroke="currentColor"><path stroke="#000" d="M394 428v-9m0-400.9v9"/><text transform="translate(394 449.9)" stroke="none" fill="#000" font-family="Arial" font-size="12" text-anchor="middle"><tspan>60</tspan></text></g><g fill="none" color="#000" stroke="currentColor"><path stroke="#000" d="M450.6 428v-9m0-400.9v9"/><text transform="translate(450.6 449.9)" stroke="none" fill="#000" font-family="Arial" font-size="12" text-anchor="middle"><tspan>70</tspan></text></g><g fill="none" color="#000" stroke="currentColor"><path stroke="#000" d="M507.3 428v-9m0-400.9v9"/><text transform="translate(507.3 449.9)" stroke="none" fill="#000" font-family="Arial" font-size="12" text-anchor="middle"><tspan>80</tspan></text></g><g fill="none" color="#000" stroke="currentColor"><path stroke="#000" d="M564 428v-9m0-400.9v9"/><text transform="translate(564 449.9)" stroke="none" fill="#000" font-family="Arial" font-size="12" text-anchor="middle"><tspan>90</tspan></text></g><path stroke="#000" d="M53.9 18.1V428H615V18.1H53.9z" fill="none" color="#000"/><text transform="translate(275.6 467.9)" stroke="none" fill="#000" font-family="Arial" font-size="12" text-anchor="end" color="#000"><tspan>pages+cached+noexternal+nosvg</tspan></text><path stroke="#9400D3" d="M283.9 464h42.2M53.9 295.7l5.7-68.5 5.6 10.1 5.7 16.6 5.7 11.6 5.6-59.4 5.7 6.2 5.7 50.6 5.6-38.2 5.7.7 5.7 37.9L116.2 26l5.7 232.1 5.7 7.4 5.6-81 5.7 64.7 5.7-53.9 5.7 91 5.6-29.6 5.7-16.9 5.7-33.3 5.6 68 5.7-7.2 5.7 7.3 5.6-11.7 5.7-27 5.7-38.5 5.6 23.5 5.7 21.5 5.7-15.7 5.6 28.5 5.7-72.5 5.7 52.3 5.6 27 5.7 49.9 5.7-128.9 5.6-37.6 5.7 43.7 5.7 64.5 5.6-16.1 5.7 53.8 5.7-84.3 5.6 89.4 5.7-43.7 5.7-2.2 5.6 10.4 5.7 57.2 5.7-52.7 5.6-6.2 5.7-65.4 5.7 90.4 5.7-59.9 5.6 44.6 5.7 8 5.7 6.3 5.6-54.9 5.7 28.5 5.7-10.2 5.6-57.6 5.7 50.4 5.7-41.1 5.6 50.5 5.7 35.8 5.7-52.7 5.6-40.6 5.7-2 5.7 62.6 5.6-49.1 5.7-89.3 5.7 143.4 5.6-69.9 5.7 23.8 5.7-14.1 5.6 17.9 5.7 35.3 5.7-27.4 5.6 33.5 5.7-21.6 5.7-21.9 5.6 34.4 5.7-43.7 5.7-9.1 5.6 92.2 5.7 3.2 5.7-76.8 5.7-17 5.6 43.9 5.7-27.5 5.7 39 5.6 15.8 5.7 3.8 5.7-3.2 5.6 13 5.7 3.5 5.7 4.9 5.6-87.6 5.7 69.6 5.7-89.3 5.6 25.5 5.7-22" fill="none" color="#000"/><text transform="translate(275.6 485.9)" stroke="none" fill="#000" font-family="Arial" font-size="12" text-anchor="end" color="#000"><tspan>pages+cached+noexternal+noimg</tspan></text><path stroke="#009E73" d="M283.9 482h42.2M53.9 261.1l5.7 159 5.6-104.5 5.7-29.9 5.7 20.4 5.6 16.1 5.7-31 5.7 84.1 5.6-29.3 5.7-43 5.7 26 5.6 38.1 5.7-56.1 5.7 7.4 5.6 24.7 5.7-66.4 5.7 39.5 5.7 7.5 5.6-41 5.7 84.6 5.7-27.9 5.6-33.7 5.7-34.2 5.7 6.3 5.6 100.6 5.7-113.9 5.7-66.7 5.6 114.4 5.7-21.8 5.7 3.7 5.6 7.1 5.7-66.1 5.7 92.7 5.6-30.6 5.7 35.3 5.7 50.8 5.6-95.1 5.7 27.9 5.7-25.8 5.6-10.8 5.7 19.3 5.7-48.1 5.6 99 5.7-31.6 5.7 9.6 5.6.6 5.7-14.6 5.7 8.3 5.6-3 5.7-12.6 5.7 20.4 5.7 10.3 5.6-17.2 5.7-35.8 5.7 25.4 5.6-13.9 5.7 31 5.7-19.9 5.6 65 5.7-47.8 5.7-19.3 5.6-27.6 5.7 5.6 5.7 53.5 5.6 4.1 5.7-15.9 5.7-14.2 5.6 56.9 5.7-12.3 5.7-14.2 5.6-45.8 5.7-38.6 5.7 56.8 5.6-3.6 5.7-12.3 5.7 57.9 5.6-161.2 5.7 129.8 5.7-28.6 5.6 70.9 5.7-14.5 5.7-44.8 5.6 39.7 5.7-123.3 5.7 27.8 5.7 59.5 5.6-2.9 5.7-48.1 5.7 65.5 5.6 25.7L564 307l5.7.6 5.6 22.8 5.7-19.8 5.7.3 5.6-18.3L598 381l5.7-133.9 5.6 59.4L615 347" fill="none" color="#000"/><text transform="translate(575.1 467.9)" stroke="none" fill="#000" font-family="Arial" font-size="12" text-anchor="end" color="#000"><tspan>score p10=2017</tspan></text><path stroke="#56B4E9" d="M583.4 464h42.2" fill="none" color="#000"/><g><text transform="translate(575.1 485.9)" stroke="none" fill="#000" font-family="Arial" font-size="12" text-anchor="end" color="#000"><tspan>score median=4000</tspan></text><path stroke="#E69F00" d="M583.4 482h42.2" fill="none" color="#000"/></g><g fill="none" color="#000" stroke="currentColor"><path stroke="#000" d="M53.9 18.1V428H615V18.1H53.9z"/></g></svg>

<?xml version="1.0" encoding="utf-8"  standalone="no"?>
<svg 
 width="640" height="500"
 viewBox="0 0 640 500"
 xmlns="http://www.w3.org/2000/svg"
 xmlns:xlink="http://www.w3.org/1999/xlink"
>

<title>Gnuplot</title>
<desc>Produced by GNUPLOT 5.4 patchlevel 0 </desc>

<g id="gnuplot_canvas">

<rect x="0" y="0" width="640" height="500" fill="#ffffff"/>
<defs>

	<circle id='gpDot' r='0.5' stroke-width='0.5' stroke='currentColor'/>
	<path id='gpPt0' stroke-width='0.222' stroke='currentColor' d='M-1,0 h2 M0,-1 v2'/>
	<path id='gpPt1' stroke-width='0.222' stroke='currentColor' d='M-1,-1 L1,1 M1,-1 L-1,1'/>
	<path id='gpPt2' stroke-width='0.222' stroke='currentColor' d='M-1,0 L1,0 M0,-1 L0,1 M-1,-1 L1,1 M-1,1 L1,-1'/>
	<rect id='gpPt3' stroke-width='0.222' stroke='currentColor' x='-1' y='-1' width='2' height='2'/>
	<rect id='gpPt4' stroke-width='0.222' stroke='currentColor' fill='currentColor' x='-1' y='-1' width='2' height='2'/>
	<circle id='gpPt5' stroke-width='0.222' stroke='currentColor' cx='0' cy='0' r='1'/>
	<use xlink:href='#gpPt5' id='gpPt6' fill='currentColor' stroke='none'/>
	<path id='gpPt7' stroke-width='0.222' stroke='currentColor' d='M0,-1.33 L-1.33,0.67 L1.33,0.67 z'/>
	<use xlink:href='#gpPt7' id='gpPt8' fill='currentColor' stroke='none'/>
	<use xlink:href='#gpPt7' id='gpPt9' stroke='currentColor' transform='rotate(180)'/>
	<use xlink:href='#gpPt9' id='gpPt10' fill='currentColor' stroke='none'/>
	<use xlink:href='#gpPt3' id='gpPt11' stroke='currentColor' transform='rotate(45)'/>
	<use xlink:href='#gpPt11' id='gpPt12' fill='currentColor' stroke='none'/>
	<path id='gpPt13' stroke-width='0.222' stroke='currentColor' d='M0,1.330 L1.265,0.411 L0.782,-1.067 L-0.782,-1.076 L-1.265,0.411 z'/>
	<use xlink:href='#gpPt13' id='gpPt14' fill='currentColor' stroke='none'/>
	<filter id='textbox' filterUnits='objectBoundingBox' x='0' y='0' height='1' width='1'>
	  <feFlood flood-color='#FFFFFF' flood-opacity='1' result='bgnd'/>
	  <feComposite in='SourceGraphic' in2='bgnd' operator='atop'/>
	</filter>
	<filter id='greybox' filterUnits='objectBoundingBox' x='0' y='0' height='1' width='1'>
	  <feFlood flood-color='lightgrey' flood-opacity='1' result='grey'/>
	  <feComposite in='SourceGraphic' in2='grey' operator='atop'/>
	</filter>
</defs>
<g fill="none" color="#FFFFFF" stroke="black" stroke-width="1.00" stroke-linecap="butt" stroke-linejoin="miter">
</g>
<g fill="none" color="black" stroke="currentColor" stroke-width="1.00" stroke-linecap="butt" stroke-linejoin="miter">
	<path stroke='black'  d='M53.9,387.5 L62.9,387.5 M615.0,387.5 L606.0,387.5  '/>	<g transform="translate(45.6,391.4)" stroke="none" fill="black" font-family="Arial" font-size="12.00"  text-anchor="end">
		<text><tspan font-family="Arial" > 700</tspan></text>
	</g>
</g>
<g fill="none" color="black" stroke="currentColor" stroke-width="1.00" stroke-linecap="butt" stroke-linejoin="miter">
	<path stroke='black'  d='M53.9,342.8 L62.9,342.8 M615.0,342.8 L606.0,342.8  '/>	<g transform="translate(45.6,346.7)" stroke="none" fill="black" font-family="Arial" font-size="12.00"  text-anchor="end">
		<text><tspan font-family="Arial" > 720</tspan></text>
	</g>
</g>
<g fill="none" color="black" stroke="currentColor" stroke-width="1.00" stroke-linecap="butt" stroke-linejoin="miter">
	<path stroke='black'  d='M53.9,298.2 L62.9,298.2 M615.0,298.2 L606.0,298.2  '/>	<g transform="translate(45.6,302.1)" stroke="none" fill="black" font-family="Arial" font-size="12.00"  text-anchor="end">
		<text><tspan font-family="Arial" > 740</tspan></text>
	</g>
</g>
<g fill="none" color="black" stroke="currentColor" stroke-width="1.00" stroke-linecap="butt" stroke-linejoin="miter">
	<path stroke='black'  d='M53.9,253.5 L62.9,253.5 M615.0,253.5 L606.0,253.5  '/>	<g transform="translate(45.6,257.4)" stroke="none" fill="black" font-family="Arial" font-size="12.00"  text-anchor="end">
		<text><tspan font-family="Arial" > 760</tspan></text>
	</g>
</g>
<g fill="none" color="black" stroke="currentColor" stroke-width="1.00" stroke-linecap="butt" stroke-linejoin="miter">
	<path stroke='black'  d='M53.9,208.9 L62.9,208.9 M615.0,208.9 L606.0,208.9  '/>	<g transform="translate(45.6,212.8)" stroke="none" fill="black" font-family="Arial" font-size="12.00"  text-anchor="end">
		<text><tspan font-family="Arial" > 780</tspan></text>
	</g>
</g>
<g fill="none" color="black" stroke="currentColor" stroke-width="1.00" stroke-linecap="butt" stroke-linejoin="miter">
	<path stroke='black'  d='M53.9,164.2 L62.9,164.2 M615.0,164.2 L606.0,164.2  '/>	<g transform="translate(45.6,168.1)" stroke="none" fill="black" font-family="Arial" font-size="12.00"  text-anchor="end">
		<text><tspan font-family="Arial" > 800</tspan></text>
	</g>
</g>
<g fill="none" color="black" stroke="currentColor" stroke-width="1.00" stroke-linecap="butt" stroke-linejoin="miter">
	<path stroke='black'  d='M53.9,119.6 L62.9,119.6 M615.0,119.6 L606.0,119.6  '/>	<g transform="translate(45.6,123.5)" stroke="none" fill="black" font-family="Arial" font-size="12.00"  text-anchor="end">
		<text><tspan font-family="Arial" > 820</tspan></text>
	</g>
</g>
<g fill="none" color="black" stroke="currentColor" stroke-width="1.00" stroke-linecap="butt" stroke-linejoin="miter">
	<path stroke='black'  d='M53.9,74.9 L62.9,74.9 M615.0,74.9 L606.0,74.9  '/>	<g transform="translate(45.6,78.8)" stroke="none" fill="black" font-family="Arial" font-size="12.00"  text-anchor="end">
		<text><tspan font-family="Arial" > 840</tspan></text>
	</g>
</g>
<g fill="none" color="black" stroke="currentColor" stroke-width="1.00" stroke-linecap="butt" stroke-linejoin="miter">
	<path stroke='black'  d='M53.9,30.3 L62.9,30.3 M615.0,30.3 L606.0,30.3  '/>	<g transform="translate(45.6,34.2)" stroke="none" fill="black" font-family="Arial" font-size="12.00"  text-anchor="end">
		<text><tspan font-family="Arial" > 860</tspan></text>
	</g>
</g>
<g fill="none" color="black" stroke="currentColor" stroke-width="1.00" stroke-linecap="butt" stroke-linejoin="miter">
	<path stroke='black'  d='M53.9,428.0 L53.9,419.0 M53.9,18.1 L53.9,27.1  '/>	<g transform="translate(53.9,449.9)" stroke="none" fill="black" font-family="Arial" font-size="12.00"  text-anchor="middle">
		<text><tspan font-family="Arial" > 0</tspan></text>
	</g>
</g>
<g fill="none" color="black" stroke="currentColor" stroke-width="1.00" stroke-linecap="butt" stroke-linejoin="miter">
	<path stroke='black'  d='M110.6,428.0 L110.6,419.0 M110.6,18.1 L110.6,27.1  '/>	<g transform="translate(110.6,449.9)" stroke="none" fill="black" font-family="Arial" font-size="12.00"  text-anchor="middle">
		<text><tspan font-family="Arial" > 10</tspan></text>
	</g>
</g>
<g fill="none" color="black" stroke="currentColor" stroke-width="1.00" stroke-linecap="butt" stroke-linejoin="miter">
	<path stroke='black'  d='M167.3,428.0 L167.3,419.0 M167.3,18.1 L167.3,27.1  '/>	<g transform="translate(167.3,449.9)" stroke="none" fill="black" font-family="Arial" font-size="12.00"  text-anchor="middle">
		<text><tspan font-family="Arial" > 20</tspan></text>
	</g>
</g>
<g fill="none" color="black" stroke="currentColor" stroke-width="1.00" stroke-linecap="butt" stroke-linejoin="miter">
	<path stroke='black'  d='M223.9,428.0 L223.9,419.0 M223.9,18.1 L223.9,27.1  '/>	<g transform="translate(223.9,449.9)" stroke="none" fill="black" font-family="Arial" font-size="12.00"  text-anchor="middle">
		<text><tspan font-family="Arial" > 30</tspan></text>
	</g>
</g>
<g fill="none" color="black" stroke="currentColor" stroke-width="1.00" stroke-linecap="butt" stroke-linejoin="miter">
	<path stroke='black'  d='M280.6,428.0 L280.6,419.0 M280.6,18.1 L280.6,27.1  '/>	<g transform="translate(280.6,449.9)" stroke="none" fill="black" font-family="Arial" font-size="12.00"  text-anchor="middle">
		<text><tspan font-family="Arial" > 40</tspan></text>
	</g>
</g>
<g fill="none" color="black" stroke="currentColor" stroke-width="1.00" stroke-linecap="butt" stroke-linejoin="miter">
	<path stroke='black'  d='M337.3,428.0 L337.3,419.0 M337.3,18.1 L337.3,27.1  '/>	<g transform="translate(337.3,449.9)" stroke="none" fill="black" font-family="Arial" font-size="12.00"  text-anchor="middle">
		<text><tspan font-family="Arial" > 50</tspan></text>
	</g>
</g>
<g fill="none" color="black" stroke="currentColor" stroke-width="1.00" stroke-linecap="butt" stroke-linejoin="miter">
	<path stroke='black'  d='M394.0,428.0 L394.0,419.0 M394.0,18.1 L394.0,27.1  '/>	<g transform="translate(394.0,449.9)" stroke="none" fill="black" font-family="Arial" font-size="12.00"  text-anchor="middle">
		<text><tspan font-family="Arial" > 60</tspan></text>
	</g>
</g>
<g fill="none" color="black" stroke="currentColor" stroke-width="1.00" stroke-linecap="butt" stroke-linejoin="miter">
	<path stroke='black'  d='M450.6,428.0 L450.6,419.0 M450.6,18.1 L450.6,27.1  '/>	<g transform="translate(450.6,449.9)" stroke="none" fill="black" font-family="Arial" font-size="12.00"  text-anchor="middle">
		<text><tspan font-family="Arial" > 70</tspan></text>
	</g>
</g>
<g fill="none" color="black" stroke="currentColor" stroke-width="1.00" stroke-linecap="butt" stroke-linejoin="miter">
	<path stroke='black'  d='M507.3,428.0 L507.3,419.0 M507.3,18.1 L507.3,27.1  '/>	<g transform="translate(507.3,449.9)" stroke="none" fill="black" font-family="Arial" font-size="12.00"  text-anchor="middle">
		<text><tspan font-family="Arial" > 80</tspan></text>
	</g>
</g>
<g fill="none" color="black" stroke="currentColor" stroke-width="1.00" stroke-linecap="butt" stroke-linejoin="miter">
	<path stroke='black'  d='M564.0,428.0 L564.0,419.0 M564.0,18.1 L564.0,27.1  '/>	<g transform="translate(564.0,449.9)" stroke="none" fill="black" font-family="Arial" font-size="12.00"  text-anchor="middle">
		<text><tspan font-family="Arial" > 90</tspan></text>
	</g>
</g>
<g fill="none" color="black" stroke="currentColor" stroke-width="1.00" stroke-linecap="butt" stroke-linejoin="miter">
</g>
<g fill="none" color="black" stroke="currentColor" stroke-width="1.00" stroke-linecap="butt" stroke-linejoin="miter">
	<path stroke='black'  d='M53.9,18.1 L53.9,428.0 L615.0,428.0 L615.0,18.1 L53.9,18.1 Z  '/></g>
<g fill="none" color="black" stroke="currentColor" stroke-width="1.00" stroke-linecap="butt" stroke-linejoin="miter">
</g>
	<g id="gnuplot_plot_1" ><title>pages+cached+noexternal+nosvg</title>
<g fill="none" color="black" stroke="currentColor" stroke-width="1.00" stroke-linecap="butt" stroke-linejoin="miter">
	<g transform="translate(275.6,467.9)" stroke="none" fill="black" font-family="Arial" font-size="12.00"  text-anchor="end">
		<text><tspan font-family="Arial" >pages+cached+noexternal+nosvg</tspan></text>
	</g>
</g>
<g fill="none" color="black" stroke="currentColor" stroke-width="1.00" stroke-linecap="butt" stroke-linejoin="miter">
	<path stroke='rgb(148,   0, 211)'  d='M283.9,464.0 L326.1,464.0 M53.9,295.7 L59.6,227.2 L65.2,237.3 L70.9,253.9 L76.6,265.5 L82.2,206.1
		L87.9,212.3 L93.6,262.9 L99.2,224.7 L104.9,225.4 L110.6,263.3 L116.2,26.0 L121.9,258.1 L127.6,265.5
		L133.2,184.5 L138.9,249.2 L144.6,195.3 L150.3,286.3 L155.9,256.7 L161.6,239.8 L167.3,206.5 L172.9,274.5
		L178.6,267.3 L184.3,274.6 L189.9,262.9 L195.6,235.9 L201.3,197.4 L206.9,220.9 L212.6,242.4 L218.3,226.7
		L223.9,255.2 L229.6,182.7 L235.3,235.0 L240.9,262.0 L246.6,311.9 L252.3,183.0 L257.9,145.4 L263.6,189.1
		L269.3,253.6 L274.9,237.5 L280.6,291.3 L286.3,207.0 L291.9,296.4 L297.6,252.7 L303.3,250.5 L308.9,260.9
		L314.6,318.1 L320.3,265.4 L325.9,259.2 L331.6,193.8 L337.3,284.2 L343.0,224.3 L348.6,268.9 L354.3,276.9
		L360.0,283.2 L365.6,228.3 L371.3,256.8 L377.0,246.6 L382.6,189.0 L388.3,239.4 L394.0,198.3 L399.6,248.8
		L405.3,284.6 L411.0,231.9 L416.6,191.3 L422.3,189.3 L428.0,251.9 L433.6,202.8 L439.3,113.5 L445.0,256.9
		L450.6,187.0 L456.3,210.8 L462.0,196.7 L467.6,214.6 L473.3,249.9 L479.0,222.5 L484.6,256.0 L490.3,234.4
		L496.0,212.5 L501.6,246.9 L507.3,203.2 L513.0,194.1 L518.6,286.3 L524.3,289.5 L530.0,212.7 L535.7,195.7
		L541.3,239.6 L547.0,212.1 L552.7,251.1 L558.3,266.9 L564.0,270.7 L569.7,267.5 L575.3,280.5 L581.0,284.0
		L586.7,288.9 L592.3,201.3 L598.0,270.9 L603.7,181.6 L609.3,207.1 L615.0,185.1  '/></g>
	</g>
	<g id="gnuplot_plot_2" ><title>pages+cached+noexternal+noimg</title>
<g fill="none" color="black" stroke="currentColor" stroke-width="1.00" stroke-linecap="butt" stroke-linejoin="miter">
	<g transform="translate(275.6,485.9)" stroke="none" fill="black" font-family="Arial" font-size="12.00"  text-anchor="end">
		<text><tspan font-family="Arial" >pages+cached+noexternal+noimg</tspan></text>
	</g>
</g>
<g fill="none" color="black" stroke="currentColor" stroke-width="1.00" stroke-linecap="butt" stroke-linejoin="miter">
	<path stroke='rgb(  0, 158, 115)'  d='M283.9,482.0 L326.1,482.0 M53.9,261.1 L59.6,420.1 L65.2,315.6 L70.9,285.7 L76.6,306.1 L82.2,322.2
		L87.9,291.2 L93.6,375.3 L99.2,346.0 L104.9,303.0 L110.6,329.0 L116.2,367.1 L121.9,311.0 L127.6,318.4
		L133.2,343.1 L138.9,276.7 L144.6,316.2 L150.3,323.7 L155.9,282.7 L161.6,367.3 L167.3,339.4 L172.9,305.7
		L178.6,271.5 L184.3,277.8 L189.9,378.4 L195.6,264.5 L201.3,197.8 L206.9,312.2 L212.6,290.4 L218.3,294.1
		L223.9,301.2 L229.6,235.1 L235.3,327.8 L240.9,297.2 L246.6,332.5 L252.3,383.3 L257.9,288.2 L263.6,316.1
		L269.3,290.3 L274.9,279.5 L280.6,298.8 L286.3,250.7 L291.9,349.7 L297.6,318.1 L303.3,327.7 L308.9,328.3
		L314.6,313.7 L320.3,322.0 L325.9,319.0 L331.6,306.4 L337.3,326.8 L343.0,337.1 L348.6,319.9 L354.3,284.1
		L360.0,309.5 L365.6,295.6 L371.3,326.6 L377.0,306.7 L382.6,371.7 L388.3,323.9 L394.0,304.6 L399.6,277.0
		L405.3,282.6 L411.0,336.1 L416.6,340.2 L422.3,324.3 L428.0,310.1 L433.6,367.0 L439.3,354.7 L445.0,340.5
		L450.6,294.7 L456.3,256.1 L462.0,312.9 L467.6,309.3 L473.3,297.0 L479.0,354.9 L484.6,193.7 L490.3,323.5
		L496.0,294.9 L501.6,365.8 L507.3,351.3 L513.0,306.5 L518.6,346.2 L524.3,222.9 L530.0,250.7 L535.7,310.2
		L541.3,307.3 L547.0,259.2 L552.7,324.7 L558.3,350.4 L564.0,307.0 L569.7,307.6 L575.3,330.4 L581.0,310.6
		L586.7,310.9 L592.3,292.6 L598.0,381.0 L603.7,247.1 L609.3,306.5 L615.0,347.0  '/></g>
	</g>
	<g id="gnuplot_plot_3" ><title>score p10=2017</title>
<g fill="none" color="black" stroke="currentColor" stroke-width="1.00" stroke-linecap="butt" stroke-linejoin="miter">
	<g transform="translate(575.1,467.9)" stroke="none" fill="black" font-family="Arial" font-size="12.00"  text-anchor="end">
		<text><tspan font-family="Arial" >score p10=2017</tspan></text>
	</g>
</g>
<g fill="none" color="black" stroke="currentColor" stroke-width="1.00" stroke-linecap="butt" stroke-linejoin="miter">
	<path stroke='rgb( 86, 180, 233)'  d='M583.4,464.0 L625.6,464.0  '/></g>
	</g>
	<g id="gnuplot_plot_4" ><title>score median=4000</title>
<g fill="none" color="black" stroke="currentColor" stroke-width="1.00" stroke-linecap="butt" stroke-linejoin="miter">
	<g transform="translate(575.1,485.9)" stroke="none" fill="black" font-family="Arial" font-size="12.00"  text-anchor="end">
		<text><tspan font-family="Arial" >score median=4000</tspan></text>
	</g>
</g>
<g fill="none" color="black" stroke="currentColor" stroke-width="1.00" stroke-linecap="butt" stroke-linejoin="miter">
	<path stroke='rgb(230, 159,   0)'  d='M583.4,482.0 L625.6,482.0  '/></g>
	</g>
<g fill="none" color="#FFFFFF" stroke="rgb(230, 159,   0)" stroke-width="2.00" stroke-linecap="butt" stroke-linejoin="miter">
</g>
<g fill="none" color="black" stroke="currentColor" stroke-width="2.00" stroke-linecap="butt" stroke-linejoin="miter">
</g>
<g fill="none" color="black" stroke="black" stroke-width="1.00" stroke-linecap="butt" stroke-linejoin="miter">
</g>
<g fill="none" color="black" stroke="currentColor" stroke-width="1.00" stroke-linecap="butt" stroke-linejoin="miter">
	<path stroke='black'  d='M53.9,18.1 L53.9,428.0 L615.0,428.0 L615.0,18.1 L53.9,18.1 Z  '/></g>
<g fill="none" color="black" stroke="currentColor" stroke-width="1.00" stroke-linecap="butt" stroke-linejoin="miter">
</g>
</g>
</svg>
